X: 8948
T: Curralane, The
R: slide
M: 12/8
K: Dmajor
E|:D2 F FGF D2 F FGF|C2 E EDE C2 E G2 E|
D2 F FGF D2 F FGF|1 G2 E C2 A, D3 D2 E:|2 G2 E C2 A, D3 D2 z||
|:C2 E EDE C2 E G2 E|D2 F FEF D2 F A,2 E|
C2 E EDE C2 E G2 E|G2 E C2 A, D3 D2 E:|

